!!!!SEGMENT: 017-1-BH-002.krn
!!!COM: Chopin, Fryderyk
!!!OTL: Mazourka No. 2.
!!!OPS: Op. 17
!!!PTL: Quatre Mazourkas
!!!PPR: Breitkopf & Härtel
!!!PPP: Leipzig
!!!NIFC-rismID: 300605069
!!!NIFC-shelfmark: PL-Wbfc 664/n
!!!OMD: M.M. [quarter] = 144. 
!!!OMD: Lento ma non troppo.
**kern	**kern	**dynam
*part1	*part1	*part1
*staff2	*staff1	*
*clefF4	*clefG2	*
*k[f#]	*k[f#]	*
*e:	*e:	*
*M3/4	*M3/4	*
*MM144	*MM144	*
4r	(4b	.
=1	=1	=1
*ped	*	*
4EE	8.aL	f
.	16gJk	.
4B 4G	4f#	.
*Xped	*	*
4B 4G	4e	.
=2	=2	=2
*ped	*	*
4AA	2dd^>	.
4e 4c 4A	.	.
*Xped	*	*
4e 4c 4A	4cc	.
=3	=3	=3
*^	*	*
4e 4c	2.D	8.bL	.
.	.	16ak	.
4d 4B	.	8e	.
.	.	8f#J	.
4c 4A	.	4d	.
*v	*v	*	*
=4	=4	=4
.	8qg/	.
*ped	*	*
4GG	2cc:^>\ 2g:^>\	.
4d 4G	.	.
*Xped	*	*
4r	[4b)	.
=5	=5	=5
*ped	*	*
4BB'<	8b'>L]	fz
.	16r	.
.	(16cc'>k 16b'>	<
*clefG2	*	*
4a 4f# 4B	8cc#X'> 8b'>	.
.	8dd'>J 8b'>	[>
4a 4f# 4B	(4dd#X [4b)	]
*Xped	*	*
*clefF4	*	*
=6	=6	=6
*ped	*	*
4E'>	8ee'>L 8b'>])	.
.	16r	.
.	(16ff#k	.
*clefG2	*	*
4g 4B	8gg	.
.	8cccJ	.
4g 4B	4bb^<)	.
*Xped	*	*
*clefF4	*	*
!!LO:LB:g=original
=7	=7	=7
*^	*	*
4r	2.E	8aa#X'>L	.
.	.	16r	.
.	.	(16ff#k	.
4f# 4c#X 4A#X	.	8aa#)	.
.	.	16r	.
.	.	(16aanJk	.
4f# 4cn 4An	.	4ff#)	.
=8	=8	=8	=8
4r	2.E	8aan'>L	.
.	.	16r	.
.	.	(16ff#k	.
4d#X 4A	.	8aa'>)	.
.	.	16r	.
.	.	(16ggJk	.
4e 4G	.	4ee)	.
*v	*v	*	*
=9	=9	=9
*ped	*	*
4BB	8b'>L	fz
.	16r	.
.	(16cc'>k 16b'>	.
*clefG2	*	*
4a 4f# 4B	8cc#X'> 8b'>	.
.	8dd'>J 8b'>	.
4a 4f# 4B	4dd#X^< 4b^<)	.
*Xped	*	*
.	.	.
*clefF4	*	*
=10	=10	=10
*ped	*	*
(4E	(16eeKL	.
.	8ggg'>J)	.
.	16r	.
!	!LO:TX:a:t=P:obiegnik pod łukiem:problem	!
4g 4B)	(8fff#mL	>
.	8eee	.
4r	8ccc	.
*Xped	*	*
.	8bbJ)	]
=11	=11	=11
*ped	*	*
4FF#	(8aa#XL	.
.	8ccc#X	.
4e 4c#X 4F#	8ddd#X 8bb	f
.	8gg#X	.
4e 4c# 4F#	8ee)	.
*Xped	*	*
.	16r	.
.	(16aa#Jk 16ff#	.
=12	=12	=12
.	8qff#/ 8qaa#	.
*ped	*	*
4BB	2bb^< 2dd#X^<)	.
4f# 4B	.	.
*Xped	*	*
4r	(>4b^<	.
!!LO:LB:g=original
=13	=13	=13
*ped	*	*
4EE	8.aL	.
.	16gJk	.
4B 4G	4f#	.
*Xped	*	*
4B 4G	4e	.
=14	=14	=14
*ped	*	*
4AA	2dd^>	.
4e 4c 4A	.	.
*Xped	*	*
4e 4c 4A	4cc	.
=15	=15	=15
*^	*	*
4e 4c	2.D	8.bL	.
.	.	16ak	.
4d 4B	.	8e	.
.	.	8f#J	.
4c 4A	.	4d	.
*v	*v	*	*
=16	=16	=16
.	8qg/	.
*ped	*	*
4GG	2cc:^>\ 2g:^>\	.
4d 4G	.	.
*Xped	*	*
4r	[4b)	.
=17	=17	=17
*ped	*	*
4BB'	8b'>L]	fz
.	16r	.
.	(16cc'>k 16b'>	<
*clefG2	*	*
4a 4f# 4B	8cc#X'> 8b'>	.
.	8dd'>J 8b'>	[>
4a 4f# 4B	(4dd#X 4b)	]
*Xped	*	*
.	.	.
*clefF4	*	*
=18	=18	=18
*ped	*	*
4E'>	8ee'>L 8b'>)	.
.	16r	.
.	(16ff#k	.
*clefG2	*	*
4g 4B	8gg	.
.	8cccJ	.
4g 4B	4bb^<)	.
*Xped	*	*
.	.	.
*clefF4	*	*
=19	=19	=19
*^	*	*
4r	2.E	8aa#X'>L	.
.	.	16r	.
.	.	(16ff#k	.
4f# 4c#X 4A#X	.	8aa#)	.
.	.	16r	.
.	.	(16aanJk	.
4f# 4cn 4An	.	4ff#)	.
!!LO:LB:g=original
=20	=20	=20	=20
4r	2.E	8aa'>L	.
.	.	16r	.
.	.	(16ff#k	.
4d#X 4A	.	8aa'>)	.
.	.	16r	.
.	.	(16ggJk	.
4e 4G	.	4ee)	.
*v	*v	*	*
=21	=21	=21
*ped	*	*
4BB	8b'>L	fz
.	16r	.
.	(16cc'>k 16b'>	.
*clefG2	*	*
4a 4f# 4B	8cc#X'> 8b'>	.
.	8dd'>J 8b'>	.
4a 4f# 4B	4dd#X^< 4b^<)	.
*Xped	*	*
.	.	.
*clefF4	*	*
=22	=22	=22
*ped	*	*
(4E	(16eeKL	.
.	8ggg'>J)	.
.	16r	.
!	!LO:TX:a:t=P:obiegnik pod łukiem:problem	!
4g 4B)	(8fff#mL	>
.	8eee	.
4r	8ccc	.
*Xped	*	*
.	8bbJ)	]
=23	=23	=23
!	!LO:TX:b:t=leggiero	!
*ped	*	*
4BB'	8aa#XL	.
.	8ff#J	.
*clefG2	*	*
4a 4d#X 4B	(12cccL	.
.	12aa#	.
.	12bbJ)	.
4a 4d# 4B	(12aanL	.
.	12bb-X	.
*Xped	*	*
.	12gg#XJ)	.
*clefF4	*	*
=24	=24	=24
*ped	*	*
4E	(12aaL	.
.	12ggn	.
.	12ff#J)	.
*Xped	*	*
2g 2B 2G	[2ee^<	.
.	.	.
=25||	=25||	=25||
*	*^	*
!	!LO:TX:a:t=dolce	!	!
*ped	*	*	*
4GG'<	(8eeL]	4fn	p
.	8ddJ	.	.
4d 4G	4b	4f	.
*Xped	*	*	*
4d [>4G	4a	4f	.
!!LO:LB:g=original
=26	=26	=26	=26
.	16qb/LL	.	.
.	16qa/JJ	.	.
4G] 4C	2g)	4e	.
4G 4C	.	4e	.
4G [>4C	([4ee^>	4e	.
=27	=27	=27	=27
8qA-X/	.	.	.
4G 4C]	8eeL]	4fn	.
.	8ddJ	.	.
4G 4C	4b	4f	.
4G 4C	4a	4f	.
=28	=28	=28	=28
.	16qb/LL	.	.
.	16qa/JJ	.	.
4G 4C	2g)	4e	.
4G 4C	.	4e	.
[4A 4C	4cc^>	4e	.
=29	=29	=29	=29
*^	*	*	*
2A]	4D	(8.ccL	4fn	.
.	.	16bk	.	.
.	2E 2AA	8dd	2e	.
.	.	8ccJ	.	.
4c	.	4a^>)	.	.
=30	=30	=30	=30	=30
2A	4D	(8.ccL	4fn	.
.	.	16bk	.	.
.	2E 2AA	8dd	2e	.
.	.	8ccJ	.	.
4c	.	4a)	.	.
=31	=31	=31	=31	=31
8.B\L	2BB	8.g#XL	4d#	.
16Ak	.	16f#k	.	.
8.c>#X	.	8.a	2ryy	.
16BJk	.	16g#Jk 16d#	.	.
(4G#X 4E	4ryy	(<4e^>	.	.
*	*	*v	*v	*
*v	*v	*	*
=32	=32	=32
4e'>)	4ee'>)	.
4e'>	4ee'>	.
4e^>	[4ee^>	.
=33	=33	=33
*	*^	*
4r	(8eeL]	4fn	.
.	8ddJ	.	.
4G'>	4b	4f	.
[4G^>	4a	4f	.
!!LO:PB:g=original
=34	=34	=34	=34
.	16qb/LL	.	.
.	16qa/JJ	.	.
!LO:TX:a:t=P:brak zakończenia ligatury:problem	!LO:TX:a:t=P:brak zakończenia łuku:problem	!	!
4G] 4C	2g)	4e	.
4G 4C	.	4e	.
4G [>4C	[4ee^>	4e	.
=35	=35	=35	=35
8qA-X/	.	.	.
4G 4C]	(8eeL]	4fn	.
.	8ddJ	.	.
4G 4C	4b	4f	.
4G 4C	4a	4f	.
=36	=36	=36	=36
.	16qb/LL	.	.
.	16qa/JJ	.	.
4G 4C	2g)	4e	.
4G 4C	.	4e	.
4G 4C	4cc^>	4e	.
=37	=37	=37	=37
4F# 4D	(8.bL	4c	.
.	16ak	.	.
4F# 4D	8b	4c	.
.	8aJ	.	.
4G\ [>\4D [4GG\	4d)	4B	.
=38	=38	=38	=38
4F#\ 4D\] 4GG\]	(8.b^>L	4c	.
.	16ak	.	.
4F#\ 4D\ 4GG\	8b^>	4c	.
.	8a	.	.
4F#\ 4D\ 4GG\	8b^>	4c	.
.	8aJ	.	.
=39	=39	=39	=39
4G\ 4D\ 4GG\	4g)	4B	<
4E-X\ 4GG\	[2a-X^	4c	.
4En\ 4GG\	.	4c#X	[
=40	=40	=40	=40
4Fn\ 4GG\	2.a-X]	4d	>
4E\ 4GG\	.	4c#X	.
4E-X\ 4GG\	.	4cn	]
=41	=41	=41	=41
4E-X\ 4GG\	(8.b-XL	4c	]
.	16a-Xk	.	.
4E-\ 4GG\	8b-	4c	.
.	8a-J	.	.
4D\ 4GG\	4d)	4Bn	.
!!LO:LB:g=original
=42	=42	=42	=42
4E-X\ 4GG\	(8.b-XL	4c	.
.	16a-Xk	.	.
4E-\ 4GG\	8b-	4c	.
.	8a-	.	.
4E-\ 4GG\	8b-	4c	.
.	8a-J	.	.
=43	=43	=43	=43
4D\ 4GG\	4g'>)	4B	.
4E-X\ 4GG\	[2an^>	4c	.
4En\ 4GG\	.	4c#X	.
=44	=44	=44	=44
4Fn\ 4GG\	2.a]	4d	.
4E\ 4GG\	.	4c#X	.
4E-X\ 4GG\	.	4cn\	.
=45	=45	=45	=45
4D\ 4GG\	4g	4B	.
4E-X\ 4GG\	[2a-X^>	4c	.
4En\ 4GG\	.	4c#X	.
=46	=46	=46	=46
4Fn\ 4GG\	4g#X]	4d	.
4E\ 4GG\	(2an^>	4c#X	.
4E-X\ 4GG\	.	4cn	.
=47	=47	=47	=47
4D\ 4GG\	4g	4Bn	.
4E-X\ 4GG\	([2a^>)	4c	.
4En\ 4GG\	.	4c#X	.
=48	=48	=48	=48
4Fn\ 4GG\	2a]	4d	pp
4E\ 4GG\	.	4c#X	.
4E-X\ 4GG\	4a-X^>)	4cn	.
*	*v	*v	*
=49	=49	=49
4D\ 4GG\	(>4g 4B	.
4E-X\ 4GG\	4a-X 4c	<
4E-\ 4GG\	4a- 4c)	[
!!LO:LB:g=original
=50	=50	=50
4E-X\ 4GG\	4a-X 4c	<
!	!LO:TX:a:t=stretto	!
4En\ 4GG\	4an 4c#X	.
4E\ 4GG\	4a 4c#	.
=51	=51	=51
*	*	*^
4E\ 4GG\	4a 4c#X	.	<
4E\ 4FF#X\	4a#X 4c#	.	.
4E\ 4FF#\	4a# 4c#	.	.
*	*	*v	*v
=52	=52	=52
4E\ 4FF#\	4a#X 4c#X	.
4E#X\ 4BB\	4b 4d	.
4F# 4BB	4b 4d#X	[[
=53	=53	=53
!	!LO:TX:a:B:t=Tempo 1.	!
.	(>32qB/LL	.
.	32qe/JJ	.
4E 4EE	8.anL	f
.	16gJk	.
4B 4G	4f#	.
4B 4G	4e	.
=54	=54	=54
4AA	2dd^>	.
4e 4c 4A	.	.
4e 4c 4A	4cc	.
=55	=55	=55
*^	*	*
4e 4c	2.D	8.bL	.
.	.	16ak	.
4d 4B	.	8e	.
.	.	8f#J	.
4c 4A	.	4d	.
*v	*v	*	*
=56	=56	=56
.	(<8qg/	.
4GG	2cc^>\ 2g^>\)	.
4d 4G	.	.
4r	4b	.
=57	=57	=57
4BB'<	8b'>L)	.
.	16r	.
.	(16cc'>k 16b'>	.
*clefG2	*	*
4a 4f# 4B	8cc#X'> 8b'>	.
.	8dd'>J 8b'>	.
!	!LO:TX:b:t=P:brak początku ligatury:problem	!
4a 4f# 4B	(4dd#X^< [4b^<)	.
*clefF4	*	*
!!LO:LB:g=original
=58	=58	=58
4E	8ee'>L 8b'>])	.
.	16r	.
.	(16ff#k	.
*clefG2	*	*
4g 4B	8gg	.
.	8cccJ	.
4g 4B	(4bb^<)	.
*clefF4	*	*
=59	=59	=59
*^	*	*
4r	2.E	8aa#X'>L)	.
.	.	16r	.
.	.	(16ff#k	.
4f# 4c#X 4A#X	.	8aa#)	.
.	.	16r	.
.	.	(16aanJk	.
4f# 4cn 4An	.	4ff#)	.
=60	=60	=60	=60
4r	2.E	8aa'>L	.
.	.	16r	.
.	.	(16ff#k	.
4d#X 4A	.	8aa)	.
.	.	16r	.
.	.	(16ggJk	.
4e 4G	.	4ee)	.
*v	*v	*	*
=61	=61	=61
4BB	8b'>L	.
.	16r	.
.	(16cc'>k 16b'>	.
*clefG2	*	*
4a 4f# 4B	8cc#X'> 8b'>	.
.	8dd'>J 8b'>	.
4a 4f# 4B	4dd#X^< 4b^<)	.
*clefF4	*	*
=62	=62	=62
(4E	(16eeKL	.
.	8ggg'>J)	.
.	16r	.
!	!LO:TX:a:t=P:obiegnik pod łukiem:problem	!
4g 4B)	(8fff#mL	.
.	8eee	.
4r	8ccc	.
.	8bbJ)	.
=63	=63	=63
*ped	*	*
4E	(8aa#XL	p
.	8bb	.
4a 4d#X 4B	8ccc	.
.	8aa#J)	.
4a 4d# 4B	(12bbL	.
.	12ff#	.
*Xped	*	*
.	12aanJ)	.
!!LO:LB:g=original
=64	=64	=64
*ped	*	*
(4E	(16ggKL	.
.	8ggg'>J)	.
.	16r	.
4g 4B)	(8fff#mL	.
.	8eee	.
4r	8ccc	.
*Xped	*	*
.	8bbJ)	.
=65	=65	=65
*ped	*	*
4E	(8aa#XL	.
!LO:TX:a:t=P:brak zmiany klucza na wiolinowy:problem	!	!
.	8bb	.
*clefG2	*	*
4b 4a 4d#X 4B	8ccc	.
.	8aa#J)	.
4b 4a 4d# 4B	(12bbL	.
.	12ff#	.
*Xped	*	*
.	12aanJ)	.
*clefF4	*	*
=66	=66	=66
*	*8va	*
*ped	*	*
4E	(16ggKL	.
.	8eeee'J)	.
.	16r	.
!	!LO:TX:b:t=ritenuto	!
.	16qcccc/LL	.
.	16qeeee/JJ	.
*clefG2	*	*
4b 4g 4e 4B	(12ccccL	.
.	12bbb	.
.	12gggJ)	.
4r	(12eeeL	.
.	12ccc	.
*Xped	*	*
.	12bbJ)	.
*	*X8va	*
*clefF4	*	*
=67	=67	=67
!	!LO:TX:a:t=loco	!
*ped	*	*
4E	8aa#XL	.
.	8ff#J	.
*clefG2	*	*
4b 4a 4d#X 4B	(12cccL	.
.	12aa#	.
.	12bbJ)	.
4b 4a 4d# 4B	(12aanL	.
.	12bb-X	.
*Xped	*	*
.	12gg#XJ)	.
*clefF4	*	*
=68	=68	=68
*^	*	*
*ped	*	*	*
4ryy	(>2.E	(12aaL	.
.	.	12ggn	.
.	.	12ff#J)	.
2g\;< 2B\;)	.	2ee;	.
*v	*v	*	*
==	==	==
*-	*-	*-
!!title: @{OTL}; @{OPS} @{ONM} publisher: @{PPR}
!!!RDF**kern: > = above
!!!RDF**kern: < = below
!!!RDF**dynam:< = "cresc",fontstyle=normal
!!!ENC:Jacek Iwaszko
!!!END:2017-12-21
!!!EED: Leszek Kubiak
!!!EST: revision finished 2018-11-27
!!!EED2: Emilia Ziętek
!!!EST2: revision finished 2018-12-07
!!!rism-genre: Mazurka
!!!rism-key: E minor
!!!rism-opus: op.  17, no. 2
!!!rism-title: Mazurka in E minor op.  17, no. 2
!!!rism-permalink: https://opac.rism.info/search?id=300605069&View=rism
!!!rism-773a-OPR: 300605067
!!!rism-parent-permalink: https://opac.rism.info/search?id=300605067&View=rism
